svg/hubspot.svg

<svg xmlns="http://www.w3.org/2000/svg" viewBox="0 0 24 24"><path d="M17.1 8.6V6.2c.6-.3 1.1-.9 1.1-1.6v-.1c0-1-.8-1.8-1.8-1.8h-.1c-1 0-1.8.8-1.8 1.8v.1c0 .7.4 1.3 1.1 1.6v2.4c-.9.1-1.8.5-2.5 1.1L6.5 4.6c.3-1.1-.4-2.3-1.5-2.5s-2.2.3-2.5 1.4.4 2.3 1.5 2.6c.5.1 1.1.1 1.6-.2l6.4 5c-1.2 1.8-1.2 4.1.1 5.9l-2 2c-.2 0-.3-.1-.5-.1-.9 0-1.7.8-1.7 1.7S8.7 22 9.6 22s1.7-.8 1.7-1.7c0-.2 0-.3-.1-.5l1.9-1.9c2.3 1.7 5.6 1.3 7.3-1s1.3-5.6-1-7.3c-.6-.5-1.4-.9-2.3-1m-.8 7.8c-1.5 0-2.7-1.2-2.7-2.7s1.2-2.7 2.7-2.7 2.7 1.2 2.7 2.7-1.2 2.7-2.7 2.7"/></svg>

<?xml version="1.0" encoding="UTF-8"?><!DOCTYPE svg PUBLIC "-//W3C//DTD SVG 1.1//EN" "http://www.w3.org/Graphics/SVG/1.1/DTD/svg11.dtd"><svg xmlns="http://www.w3.org/2000/svg" xmlns:xlink="http://www.w3.org/1999/xlink" version="1.1" id="mdi-hubspot" width="24" height="24" viewBox="0 0 24 24"><path d="M17.1,8.6V6.2C17.7,5.9 18.2,5.3 18.2,4.6V4.5C18.2,3.5 17.4,2.7 16.4,2.7H16.3C15.3,2.7 14.5,3.5 14.5,4.5V4.6C14.5,5.3 14.9,5.9 15.6,6.2V8.6C14.7,8.7 13.8,9.1 13.1,9.7L6.5,4.6C6.8,3.5 6.1,2.3 5,2.1C3.9,1.9 2.8,2.4 2.5,3.5C2.2,4.6 2.9,5.8 4,6.1C4.5,6.2 5.1,6.2 5.6,5.9L12,10.9C10.8,12.7 10.8,15 12.1,16.8L10.1,18.8C9.9,18.8 9.8,18.7 9.6,18.7C8.7,18.7 7.9,19.5 7.9,20.4C7.9,21.3 8.7,22 9.6,22C10.5,22 11.3,21.2 11.3,20.3V20.3C11.3,20.1 11.3,20 11.2,19.8L13.1,17.9C15.4,19.6 18.7,19.2 20.4,16.9C22.1,14.6 21.7,11.3 19.4,9.6C18.8,9.1 18,8.7 17.1,8.6M16.3,16.4C14.8,16.4 13.6,15.2 13.6,13.7C13.6,12.2 14.8,11 16.3,11C17.8,11 19,12.2 19,13.7C19,15.2 17.8,16.4 16.3,16.4" /></svg>
